src/assets/sprites/icon-fallback.svg

<svg xmlns="http://www.w3.org/2000/svg" width="48" height="48" viewBox="0 0 48 48">
  <g fill="none" fill-rule="evenodd">
    <path fill="#D1D5DB" d="M8,0 L33.0857864,0 L33.0857864,-6.10622664e-15 C33.3510029,-7.09718437e-15 33.6053568,0.10535684 33.7928932,0.292893219 L43.7071068,10.2071068 L43.7071068,10.2071068 C43.8946432,10.3946432 44,10.6489971 44,10.9142136 L44,45 L44,45 C44,46.6568542 42.6568542,48 41,48 L8,48 L8,48 C6.34314575,48 5,46.6568542 5,45 L5,3 L5,3 C5,1.34314575 6.34314575,3.04359188e-16 8,0 Z"/>
    <path fill="#A3ACB8" d="M32,2.57127653e-13 L32,12 L44,12 L44,10.9142136 L44,10.9142136 C44,10.6489971 43.8946432,10.3946432 43.7071068,10.2071068 L33.7928932,0.292893219 L33.7928932,0.292893219 C33.6053568,0.10535684 33.3510029,2.42102908e-14 33.0857864,6.97220059e-14 L32,2.57127653e-13 Z"/>
  </g>
</svg>

<svg xmlns="http://www.w3.org/2000/svg" viewBox="0 0 48 48"><g fill="none" fill-rule="evenodd"><path fill="#D1D5DB" d="M8 0h25.086a1 1 0 0 1 .707.293l9.914 9.914a1 1 0 0 1 .293.707V45a3 3 0 0 1-3 3H8a3 3 0 0 1-3-3V3a3 3 0 0 1 3-3z"/><path fill="#A3ACB8" d="M32 0v12h12v-1.086a1 1 0 0 0-.293-.707L33.793.293A1 1 0 0 0 33.086 0H32z"/></g></svg>
